modules/hawcons-stroke/icons/icon-60-file-ott.svg

<?xml version="1.0" encoding="UTF-8" standalone="no"?>
<svg width="32px" height="32px" viewBox="0 0 32 32" version="1.1" xmlns="http://www.w3.org/2000/svg" xmlns:xlink="http://www.w3.org/1999/xlink" xmlns:sketch="http://www.bohemiancoding.com/sketch/ns">
    <!-- Generator: Sketch 3.0.3 (7891) - http://www.bohemiancoding.com/sketch -->
    <title>icon 60 file ott</title>
    <desc>Created with Sketch.</desc>
    <defs></defs>
    <g id="Page-1" stroke="none" stroke-width="1" fill="none" fill-rule="evenodd" sketch:type="MSPage">
        <g id="icon-60-file-ott" sketch:type="MSArtboardGroup" fill="#929292">
            <path d="M8.00684834,10 C6.34621185,10 5,11.3422643 5,12.9987856 L5,20.0012144 C5,21.6573979 6.33599155,23 8.00684834,23 L24.9931517,23 C26.6537881,23 28,21.6577357 28,20.0012144 L28,12.9987856 C28,11.3426021 26.6640085,10 24.9931517,10 L8.00684834,10 L8.00684834,10 Z M7.99456145,11 C6.89299558,11 6,11.9001762 6,12.992017 L6,20.007983 C6,21.1081436 6.90234375,22 7.99456145,22 L25.0054385,22 C26.1070044,22 27,21.0998238 27,20.007983 L27,12.992017 C27,11.8918564 26.0976562,11 25.0054385,11 L7.99456145,11 L7.99456145,11 Z M10.0048815,13 C8.89761602,13 8,13.8865548 8,15.0059191 L8,17.9940809 C8,19.1019194 8.8938998,20 10.0048815,20 L10.9951185,20 C12.102384,20 13,19.1134452 13,17.9940809 L13,15.0059191 C13,13.8980806 12.1061002,13 10.9951185,13 L10.0048815,13 L10.0048815,13 Z M9.99895656,14 C9.44724809,14 9,14.4437166 9,14.9998075 L9,18.0001925 C9,18.5523709 9.44266033,19 9.99895656,19 L11.0010434,19 C11.5527519,19 12,18.5562834 12,18.0001925 L12,14.9998075 C12,14.4476291 11.5573397,14 11.0010434,14 L9.99895656,14 L9.99895656,14 Z M16,14 L16,20 L17,20 L17,14 L19,14 L19,13 L14,13 L14,14 L16,14 L16,14 Z M22,14 L22,20 L23,20 L23,14 L25,14 L25,13 L20,13 L20,14 L22,14 L22,14 Z" id="file-ott" sketch:type="MSShapeGroup"></path>
        </g>
    </g>
</svg>

<svg width="32" height="32" xmlns="http://www.w3.org/2000/svg"><path d="M8.007 10A3.003 3.003 0 0 0 5 12.999V20A2.996 2.996 0 0 0 8.007 23h16.986A3.003 3.003 0 0 0 28 20.001V13A2.996 2.996 0 0 0 24.993 10H8.007zm-.012 1C6.893 11 6 11.9 6 12.992v7.016A2 2 0 0 0 7.995 22h17.01C26.107 22 27 21.1 27 20.008v-7.016A2 2 0 0 0 25.005 11H7.995zm2.01 2A1.998 1.998 0 0 0 8 15.006v2.988C8 19.102 8.894 20 10.005 20h.99A1.998 1.998 0 0 0 13 17.994v-2.988A2.003 2.003 0 0 0 10.995 13h-.99zm-.006 1A.997.997 0 0 0 9 15v3c0 .552.443 1 .999 1h1.002A.997.997 0 0 0 12 18v-3c0-.552-.443-1-.999-1H9.999zM16 14v6h1v-6h2v-1h-5v1h2zm6 0v6h1v-6h2v-1h-5v1h2z" fill="#929292" fill-rule="evenodd"/></svg>
